!! 00000] TT[00
!!!OTL: Diu jiezhi
!!!ARE: Asia, China,Liaoning
!! Ethnic Group: Han
!! Zhongguo Minge Jing Xuan, 82
!!!SCT: C1166
!!!YEM: Copyright 1995, estate of Helmut Schaffrath.
**kern
*ICvox
*Ivox
*M2/4
*k[b-]
*F:
{8cc
8ff
16dd
16cc
16dd
16ff
=1
4.cc
16dd
16cc
=2
8a
8a
8g
8a
=3
4.cc
8r}
=4
{8r
4dd
8cc
=5
8ff
16ff
16gg
8dd
8cc
=6
16a
16cc
8a
8g
8a
=7
8.cc
16cc
8a
8dd
=8
2cc}
=9
{8r
8ff
8ff
16dd
16cc
=10
16ff
16dd
8ff
8dd
16r
16cc
=11
8dd
16dd
16cc
16g
16a
16g
16a
=12
8cc
4cc
8f}
=13
{16g
16a
16g
16f
8g
8a
=14
4cc
4a
=15
4a
16a
16cc
8a
=16
8g
8f
8.a
16g
=17
4.f
8r}
=18
{4ff
8gg
8dd
=19
8cc
4cc
16dd
16cc
=20
8a
8a
8g
8a
=21
8cc
8cc
4r}
=22
{4dd
8dd
16cc
16dd
=23
8ff
16gg
16ff
8dd
8cc
=24
8a
16cc
16a
8g
8a
=25
8.cc
16cc
8.a
16dd
=26
4.cc
8r}
=27
{8dd
16g
16a
16cc
16dd
16cc
16dd
=28
8ff
16ff
16gg
8ff
16dd
16cc
=29
8dd
16dd
16cc
16g
16a
16g
16a
=30
8cc
4cc
8f}
=31
{8g
8f
8g
8a
=32
4cc
4dd
=33
4a
16a
16cc
8a
=34
8g
8f
8.a
16g
=35
4.f
8r}
=36
{8a
8a
8g
8a
=37
8cc
8cc
8r
16dd
16cc
=38
8a
8cc
8g
8a
=39
4.cc
8r}
=40
{8a
8cc
8dd
8cc
=41
8ff
16gg
16ff
8dd
8cc
=42
4cc
8g
8a
=43
8.cc
16cc
8a
8dd
=44
2cc}
=45
{8r
8a
8cc
16cc
16dd
=46
8ff
16gg
16ff
8.dd
16cc
=47
8dd
16dd
16cc
16g
16a
16g
16a
=48
8cc
4cc}
{8f
=49
16g
16a
16g
16f
8g
8a
=50
4cc
4dd
=51
4a
16a
16cc
16a
16g
=52
8f
8f
8r
8g
=53
4.f
8r}
=54
{8ff
8ff
8gg
8dd
=55
16ff
16dd
8cc
4ee
=56
8r
8cc
8g
8a
=57
8cc
8dd
4cc}
=58
{8a
8cc
8dd
8cc
=59
8ff
16gg
16ff
8dd
8cc
=60
4cc
8g
8a
=61
8.cc
16cc
8a
8dd
=62
2cc}
=63
{8r
16ff
16dd
8ff
16dd
16cc
=64
8a
8dd
4cc
=65
8a
8cc
8dd
16cc
16dd
=66
8.ff
16dd
8cc
8a
=67
16g
16a
16g
16f
16g
16f
8g}
=68
{16g
16a
16g
16f
8g
8g
=69
8r
16cc
16a
8r
8cc
=70
4a
8a
8g
=71
8.ff
16ff
8dd
8gg
=72
2ff}
==
!!!AGN: Xiaodiao
!! ohne Ziwschenspiele, aber 5.letzter Takt als Ziwschenspiel. +++ Eine
!!    doppelte Punktierung wurde in eine einfache ge„ndert! +++ 
!!!ONB: ESAC (Essen Associative Code) Database: CHINA_028
!!!AMT: simple duple
!!!AIN: vox
!!!EED: Helmut Schaffrath
!!!EEV: 1.0
*-
